X:1
T:Lillibulero
M:6/8
C:
S:Seabright
N:the way we do it
A:Bledington
O:English
R:Jig
%:
%:
%P:A/2(AB)$^2$(AC)$^2$(A)
P:A.(AB)2(AC)2(A)
K:G
Q:C3=96
P:A
|: D | G>AG B2 B | A>BA c2 c | BdG c2 B | AGF G2 :|\
P:B
|: d | g2 f g2 d | de=f e2 d | def gfe  | ded A2 \
   d | edc  Bcd  | edc  Bcd  | egG c2 B | AGF G2 :|\
Q:C3=84
P:C
   d | g3   f3   | g3  d3 | (2de =f3  | e3   d3   | (2de f3   | (2gf e3   |\
       (2de d3   | A3  d3 | (2ed c3   | (2Bc d3   | (2ed c3   | (2Bc d3   |\
Q:C3=96
       egG  c2 B | AGF G2   ||
